images/50628055.svg

<?xml version="1.0" encoding="UTF-8"?>
<svg xmlns="http://www.w3.org/2000/svg" xmlns:xlink="http://www.w3.org/1999/xlink" width="300pt" height="300pt" viewBox="0 0 300 300" version="1.1">
<defs>
<g>
<symbol overflow="visible" id="glyph0-0">
<path style="stroke:none;" d="M 0.640625 2.296875 L 0.640625 -9.171875 L 7.140625 -9.171875 L 7.140625 2.296875 Z M 1.375 1.578125 L 6.421875 1.578125 L 6.421875 -8.4375 L 1.375 -8.4375 Z M 1.375 1.578125 "/>
</symbol>
<symbol overflow="visible" id="glyph0-1">
<path style="stroke:none;" d="M 1.28125 -9.484375 L 3 -9.484375 L 7.203125 -1.546875 L 7.203125 -9.484375 L 8.453125 -9.484375 L 8.453125 0 L 6.71875 0 L 2.515625 -7.921875 L 2.515625 0 L 1.28125 0 Z M 1.28125 -9.484375 "/>
</symbol>
<symbol overflow="visible" id="glyph0-2">
<path style="stroke:none;" d="M 1.28125 -9.484375 L 2.5625 -9.484375 L 2.5625 -5.59375 L 7.21875 -5.59375 L 7.21875 -9.484375 L 8.5 -9.484375 L 8.5 0 L 7.21875 0 L 7.21875 -4.515625 L 2.5625 -4.515625 L 2.5625 0 L 1.28125 0 Z M 1.28125 -9.484375 "/>
</symbol>
<symbol overflow="visible" id="glyph1-0">
<path style="stroke:none;" d="M 0.546875 1.9375 L 0.546875 -7.75 L 6.046875 -7.75 L 6.046875 1.9375 Z M 1.171875 1.328125 L 5.4375 1.328125 L 5.4375 -7.140625 L 1.171875 -7.140625 Z M 1.171875 1.328125 "/>
</symbol>
<symbol overflow="visible" id="glyph1-1">
<path style="stroke:none;" d="M 2.109375 -0.90625 L 5.890625 -0.90625 L 5.890625 0 L 0.8125 0 L 0.8125 -0.90625 C 1.21875 -1.332031 1.773438 -1.90625 2.484375 -2.625 C 3.203125 -3.34375 3.648438 -3.804688 3.828125 -4.015625 C 4.171875 -4.410156 4.410156 -4.742188 4.546875 -5.015625 C 4.691406 -5.285156 4.765625 -5.550781 4.765625 -5.8125 C 4.765625 -6.238281 4.613281 -6.582031 4.3125 -6.84375 C 4.019531 -7.113281 3.628906 -7.25 3.140625 -7.25 C 2.804688 -7.25 2.445312 -7.1875 2.0625 -7.0625 C 1.6875 -6.945312 1.285156 -6.769531 0.859375 -6.53125 L 0.859375 -7.625 C 1.296875 -7.800781 1.703125 -7.9375 2.078125 -8.03125 C 2.460938 -8.125 2.8125 -8.171875 3.125 -8.171875 C 3.957031 -8.171875 4.617188 -7.960938 5.109375 -7.546875 C 5.609375 -7.128906 5.859375 -6.570312 5.859375 -5.875 C 5.859375 -5.539062 5.796875 -5.226562 5.671875 -4.9375 C 5.546875 -4.644531 5.320312 -4.296875 5 -3.890625 C 4.90625 -3.785156 4.617188 -3.484375 4.140625 -2.984375 C 3.660156 -2.492188 2.984375 -1.800781 2.109375 -0.90625 Z M 2.109375 -0.90625 "/>
</symbol>
</g>
</defs>
<g id="surface9069">
<rect x="0" y="0" width="300" height="300" style="fill:rgb(100%,100%,100%);fill-opacity:1;stroke:none;"/>
<path style="fill:none;stroke-width:1.2;stroke-linecap:butt;stroke-linejoin:miter;stroke:rgb(0%,0%,100%);stroke-opacity:1;stroke-miterlimit:10;" d="M 88.09375 189.9375 L 56.929688 175.976562 "/>
<path style="fill:none;stroke-width:1.2;stroke-linecap:butt;stroke-linejoin:miter;stroke:rgb(0%,0%,0%);stroke-opacity:1;stroke-miterlimit:10;" d="M 111.003906 164.609375 L 99.550781 177.273438 "/>
<path style="fill:none;stroke-width:1.2;stroke-linecap:butt;stroke-linejoin:miter;stroke:rgb(0%,0%,100%);stroke-opacity:1;stroke-miterlimit:10;" d="M 99.550781 177.273438 L 88.09375 189.9375 "/>
<path style=" stroke:none;fill-rule:nonzero;fill:rgb(100%,100%,100%);fill-opacity:1;" d="M 78.09375 181.9375 L 98.09375 181.9375 L 98.09375 197.9375 L 78.09375 197.9375 Z M 78.09375 181.9375 "/>
<g style="fill:rgb(0%,0%,100%);fill-opacity:1;">
  <use xlink:href="#glyph0-1" x="78.09375" y="194.313477"/>
  <use xlink:href="#glyph0-2" x="88.063477" y="194.313477"/>
</g>
<path style="fill:none;stroke-width:1.2;stroke-linecap:butt;stroke-linejoin:miter;stroke:rgb(0%,0%,100%);stroke-opacity:1;stroke-miterlimit:10;" d="M 56.929688 175.976562 L 58.753906 158.996094 "/>
<path style="fill:none;stroke-width:1.2;stroke-linecap:butt;stroke-linejoin:miter;stroke:rgb(0%,0%,0%);stroke-opacity:1;stroke-miterlimit:10;" d="M 58.753906 158.996094 L 60.578125 142.019531 "/>
<path style="fill:none;stroke-width:1.2;stroke-linecap:butt;stroke-linejoin:miter;stroke:rgb(0%,0%,100%);stroke-opacity:1;stroke-miterlimit:10;" d="M 65.28125 173.4375 L 66.742188 159.855469 "/>
<path style="fill:none;stroke-width:1.2;stroke-linecap:butt;stroke-linejoin:miter;stroke:rgb(0%,0%,0%);stroke-opacity:1;stroke-miterlimit:10;" d="M 66.742188 159.855469 L 68.199219 146.273438 "/>
<path style=" stroke:none;fill-rule:nonzero;fill:rgb(100%,100%,100%);fill-opacity:1;" d="M 51.929688 167.976562 L 61.929688 167.976562 L 61.929688 183.976562 L 51.929688 183.976562 Z M 51.929688 167.976562 "/>
<g style="fill:rgb(0%,0%,100%);fill-opacity:1;">
  <use xlink:href="#glyph0-1" x="51.929688" y="180.352539"/>
</g>
<path style="fill:none;stroke-width:1.2;stroke-linecap:butt;stroke-linejoin:miter;stroke:rgb(0%,0%,0%);stroke-opacity:1;stroke-miterlimit:10;" d="M 60.578125 142.019531 L 47.914062 130.566406 "/>
<path style="fill:none;stroke-width:1.2;stroke-linecap:butt;stroke-linejoin:miter;stroke:rgb(0%,0%,100%);stroke-opacity:1;stroke-miterlimit:10;" d="M 47.914062 130.566406 L 35.25 119.109375 "/>
<path style="fill:none;stroke-width:1.2;stroke-linecap:butt;stroke-linejoin:miter;stroke:rgb(0%,0%,0%);stroke-opacity:1;stroke-miterlimit:10;" d="M 60.578125 142.019531 L 93.996094 134.996094 "/>
<path style=" stroke:none;fill-rule:nonzero;fill:rgb(100%,100%,100%);fill-opacity:1;" d="M 7.25 109.109375 L 35.25 109.109375 L 35.25 129.109375 L 7.25 129.109375 Z M 7.25 109.109375 "/>
<g style="fill:rgb(0%,0%,100%);fill-opacity:1;">
  <use xlink:href="#glyph0-2" x="7.25" y="121.485352"/>
</g>
<g style="fill:rgb(0%,0%,100%);fill-opacity:1;">
  <use xlink:href="#glyph1-1" x="17.272461" y="126.368164"/>
</g>
<g style="fill:rgb(0%,0%,100%);fill-opacity:1;">
  <use xlink:href="#glyph0-1" x="24.34082" y="121.485352"/>
</g>
<path style="fill:none;stroke-width:1.2;stroke-linecap:butt;stroke-linejoin:miter;stroke:rgb(0%,0%,0%);stroke-opacity:1;stroke-miterlimit:10;" d="M 93.996094 134.996094 L 111.003906 164.609375 "/>
<path style="fill:none;stroke-width:1.2;stroke-linecap:butt;stroke-linejoin:miter;stroke:rgb(0%,0%,0%);stroke-opacity:1;stroke-miterlimit:10;" d="M 102.664062 133.957031 L 116.273438 157.648438 "/>
<path style="fill:none;stroke-width:1.2;stroke-linecap:butt;stroke-linejoin:miter;stroke:rgb(0%,0%,0%);stroke-opacity:1;stroke-miterlimit:10;" d="M 111.140625 105.460938 L 93.996094 134.996094 "/>
<path style="fill:none;stroke-width:1.2;stroke-linecap:butt;stroke-linejoin:miter;stroke:rgb(0%,0%,0%);stroke-opacity:1;stroke-miterlimit:10;" d="M 111.003906 164.609375 L 145.15625 164.691406 "/>
<path style="fill:none;stroke-width:1.2;stroke-linecap:butt;stroke-linejoin:miter;stroke:rgb(0%,0%,0%);stroke-opacity:1;stroke-miterlimit:10;" d="M 145.15625 164.691406 L 162.296875 135.152344 "/>
<path style="fill:none;stroke-width:1.2;stroke-linecap:butt;stroke-linejoin:miter;stroke:rgb(0%,0%,0%);stroke-opacity:1;stroke-miterlimit:10;" d="M 139.917969 157.703125 L 153.632812 134.074219 "/>
<path style="fill:none;stroke-width:1.2;stroke-linecap:butt;stroke-linejoin:miter;stroke:rgb(0%,0%,0%);stroke-opacity:1;stroke-miterlimit:10;" d="M 162.296875 135.152344 L 145.289062 105.539062 "/>
<path style="fill:none;stroke-width:1.2;stroke-linecap:butt;stroke-linejoin:miter;stroke:rgb(0%,0%,0%);stroke-opacity:1;stroke-miterlimit:10;" d="M 162.296875 135.152344 L 196.449219 135.230469 "/>
<path style="fill:none;stroke-width:1.2;stroke-linecap:butt;stroke-linejoin:miter;stroke:rgb(0%,0%,0%);stroke-opacity:1;stroke-miterlimit:10;" d="M 145.289062 105.539062 L 111.140625 105.460938 "/>
<path style="fill:none;stroke-width:1.2;stroke-linecap:butt;stroke-linejoin:miter;stroke:rgb(0%,0%,0%);stroke-opacity:1;stroke-miterlimit:10;" d="M 141.855469 113.566406 L 114.535156 113.503906 "/>
<path style="fill:none;stroke-width:1.2;stroke-linecap:butt;stroke-linejoin:miter;stroke:rgb(0%,0%,0%);stroke-opacity:1;stroke-miterlimit:10;" d="M 196.449219 135.230469 L 204.953125 150.039062 "/>
<path style="fill:none;stroke-width:1.2;stroke-linecap:butt;stroke-linejoin:miter;stroke:rgb(0%,0%,100%);stroke-opacity:1;stroke-miterlimit:10;" d="M 204.953125 150.039062 L 213.457031 164.847656 "/>
<path style="fill:none;stroke-width:1.2;stroke-linecap:butt;stroke-linejoin:miter;stroke:rgb(0%,0%,0%);stroke-opacity:1;stroke-miterlimit:10;" d="M 205.117188 134.191406 L 211.921875 146.039062 "/>
<path style="fill:none;stroke-width:1.2;stroke-linecap:butt;stroke-linejoin:miter;stroke:rgb(0%,0%,100%);stroke-opacity:1;stroke-miterlimit:10;" d="M 211.921875 146.039062 L 218.722656 157.882812 "/>
<path style="fill:none;stroke-width:1.2;stroke-linecap:butt;stroke-linejoin:miter;stroke:rgb(0%,0%,0%);stroke-opacity:1;stroke-miterlimit:10;" d="M 213.59375 105.695312 L 196.449219 135.230469 "/>
<path style="fill:none;stroke-width:1.2;stroke-linecap:butt;stroke-linejoin:miter;stroke:rgb(0%,0%,100%);stroke-opacity:1;stroke-miterlimit:10;" d="M 213.457031 164.847656 L 230.53125 164.886719 "/>
<path style="fill:none;stroke-width:1.2;stroke-linecap:butt;stroke-linejoin:miter;stroke:rgb(0%,0%,0%);stroke-opacity:1;stroke-miterlimit:10;" d="M 230.53125 164.886719 L 247.605469 164.925781 "/>
<path style=" stroke:none;fill-rule:nonzero;fill:rgb(100%,100%,100%);fill-opacity:1;" d="M 208.457031 156.847656 L 218.457031 156.847656 L 218.457031 172.847656 L 208.457031 172.847656 Z M 208.457031 156.847656 "/>
<g style="fill:rgb(0%,0%,100%);fill-opacity:1;">
  <use xlink:href="#glyph0-1" x="208.457031" y="169.223633"/>
</g>
<path style="fill:none;stroke-width:1.2;stroke-linecap:butt;stroke-linejoin:miter;stroke:rgb(0%,0%,0%);stroke-opacity:1;stroke-miterlimit:10;" d="M 247.605469 164.925781 L 256.179688 150.15625 "/>
<path style="fill:none;stroke-width:1.2;stroke-linecap:butt;stroke-linejoin:miter;stroke:rgb(0%,0%,100%);stroke-opacity:1;stroke-miterlimit:10;" d="M 256.179688 150.15625 L 264.75 135.390625 "/>
<path style="fill:none;stroke-width:1.2;stroke-linecap:butt;stroke-linejoin:miter;stroke:rgb(0%,0%,0%);stroke-opacity:1;stroke-miterlimit:10;" d="M 242.371094 157.9375 L 249.230469 146.125 "/>
<path style="fill:none;stroke-width:1.2;stroke-linecap:butt;stroke-linejoin:miter;stroke:rgb(0%,0%,100%);stroke-opacity:1;stroke-miterlimit:10;" d="M 249.230469 146.125 L 256.085938 134.308594 "/>
<path style="fill:none;stroke-width:1.2;stroke-linecap:butt;stroke-linejoin:miter;stroke:rgb(0%,0%,0%);stroke-opacity:1;stroke-miterlimit:10;" d="M 247.605469 164.925781 L 256.109375 179.730469 "/>
<path style="fill:none;stroke-width:1.2;stroke-linecap:butt;stroke-linejoin:miter;stroke:rgb(0%,0%,100%);stroke-opacity:1;stroke-miterlimit:10;" d="M 256.109375 179.730469 L 264.613281 194.539062 "/>
<path style="fill:none;stroke-width:1.2;stroke-linecap:butt;stroke-linejoin:miter;stroke:rgb(0%,0%,100%);stroke-opacity:1;stroke-miterlimit:10;" d="M 264.75 135.390625 L 256.246094 120.582031 "/>
<path style="fill:none;stroke-width:1.2;stroke-linecap:butt;stroke-linejoin:miter;stroke:rgb(0%,0%,0%);stroke-opacity:1;stroke-miterlimit:10;" d="M 256.246094 120.582031 L 247.742188 105.773438 "/>
<path style=" stroke:none;fill-rule:nonzero;fill:rgb(100%,100%,100%);fill-opacity:1;" d="M 259.75 127.390625 L 269.75 127.390625 L 269.75 143.390625 L 259.75 143.390625 Z M 259.75 127.390625 "/>
<g style="fill:rgb(0%,0%,100%);fill-opacity:1;">
  <use xlink:href="#glyph0-1" x="259.75" y="139.766602"/>
</g>
<path style="fill:none;stroke-width:1.2;stroke-linecap:butt;stroke-linejoin:miter;stroke:rgb(0%,0%,0%);stroke-opacity:1;stroke-miterlimit:10;" d="M 247.742188 105.773438 L 213.59375 105.695312 "/>
<path style="fill:none;stroke-width:1.2;stroke-linecap:butt;stroke-linejoin:miter;stroke:rgb(0%,0%,0%);stroke-opacity:1;stroke-miterlimit:10;" d="M 244.308594 113.800781 L 216.988281 113.738281 "/>
<path style=" stroke:none;fill-rule:nonzero;fill:rgb(100%,100%,100%);fill-opacity:1;" d="M 250.613281 184.539062 L 278.613281 184.539062 L 278.613281 204.539062 L 250.613281 204.539062 Z M 250.613281 184.539062 "/>
<g style="fill:rgb(0%,0%,100%);fill-opacity:1;">
  <use xlink:href="#glyph0-1" x="250.613281" y="196.915039"/>
  <use xlink:href="#glyph0-2" x="260.583008" y="196.915039"/>
</g>
<g style="fill:rgb(0%,0%,100%);fill-opacity:1;">
  <use xlink:href="#glyph1-1" x="270.605469" y="201.797852"/>
</g>
</g>
</svg>

<svg xmlns="http://www.w3.org/2000/svg" xmlns:xlink="http://www.w3.org/1999/xlink" width="300pt" height="300pt" viewBox="0 0 300 300"><defs><symbol overflow="visible"><path d="M.64 2.297v-11.47h6.5v11.47zm.735-.72h5.047V-8.436H1.375zm0 0"/></symbol><symbol overflow="visible" id="a"><path d="M1.28-9.484H3l4.203 7.937v-7.937h1.25V0H6.72L2.515-7.922V0H1.28zm0 0"/></symbol><symbol overflow="visible" id="b"><path d="M1.28-9.484h1.282v3.89H7.22v-3.89H8.5V0H7.22v-4.516H2.562V0H1.28zm0 0"/></symbol><symbol overflow="visible"><path d="M.547 1.938V-7.75h5.5v9.688zm.625-.61h4.266v-8.47H1.171zm0 0"/></symbol><symbol overflow="visible" id="c"><path d="M2.11-.906h3.78V0H.814v-.906c.406-.426.96-1 1.67-1.72.72-.718 1.165-1.18 1.345-1.39.344-.394.582-.726.72-1 .143-.27.218-.535.218-.796 0-.426-.153-.77-.454-1.032-.292-.27-.683-.406-1.17-.406-.337 0-.697.063-1.08.188-.374.117-.777.292-1.203.53v-1.093c.437-.176.843-.313 1.218-.406.383-.095.735-.142 1.047-.142.832 0 1.492.21 1.984.625.5.418.75.977.75 1.672 0 .336-.063.648-.188.938-.125.292-.352.64-.672 1.046-.094.105-.383.406-.86.906L2.11-.906zm0 0"/></symbol></defs><g><path fill="#fff" d="M0 0h300v300H0z"/><path d="M88.094 189.938l-31.164-13.96" stroke-width="1.2" stroke="#00f" stroke-miterlimit="10" fill="none"/><path d="M111.004 164.61L99.55 177.272" stroke-width="1.2" stroke="#000" stroke-miterlimit="10" fill="none"/><path d="M99.55 177.273l-11.456 12.665" stroke-width="1.2" stroke="#00f" stroke-miterlimit="10" fill="none"/><path d="M78.094 181.938h20v16h-20zm0 0" fill="#fff"/><g fill="#00f"><use xlink:href="#a" x="78.094" y="194.313"/><use xlink:href="#b" x="88.063" y="194.313"/></g><path d="M56.93 175.977l1.824-16.98" stroke-width="1.2" stroke="#00f" stroke-miterlimit="10" fill="none"/><path d="M58.754 158.996l1.824-16.976" stroke-width="1.2" stroke="#000" stroke-miterlimit="10" fill="none"/><path d="M65.28 173.438l1.462-13.583" stroke-width="1.2" stroke="#00f" stroke-miterlimit="10" fill="none"/><path d="M66.742 159.855l1.457-13.582" stroke-width="1.2" stroke="#000" stroke-miterlimit="10" fill="none"/><path d="M51.93 167.977h10v16h-10zm0 0" fill="#fff"/><use xlink:href="#a" x="51.93" y="180.353" fill="#00f"/><path d="M60.578 142.02l-12.664-11.454" stroke-width="1.2" stroke="#000" stroke-miterlimit="10" fill="none"/><path d="M47.914 130.566L35.25 119.11" stroke-width="1.2" stroke="#00f" stroke-miterlimit="10" fill="none"/><path d="M60.578 142.02l33.418-7.024" stroke-width="1.2" stroke="#000" stroke-miterlimit="10" fill="none"/><path d="M7.25 109.11h28v20h-28zm0 0" fill="#fff"/><use xlink:href="#b" x="7.25" y="121.485" fill="#00f"/><use xlink:href="#c" x="17.272" y="126.368" fill="#00f"/><use xlink:href="#a" x="24.341" y="121.485" fill="#00f"/><path d="M93.996 134.996l17.008 29.613M102.664 133.957l13.61 23.69M111.14 105.46l-17.144 29.536M111.004 164.61l34.152.08M145.156 164.69l17.14-29.538M139.918 157.703l13.715-23.63M162.297 135.152L145.29 105.54M162.297 135.152l34.152.078M145.29 105.54l-34.15-.08M141.855 113.566l-27.32-.062M196.45 135.23l8.503 14.81" stroke-width="1.2" stroke="#000" stroke-miterlimit="10" fill="none"/><path d="M204.953 150.04l8.504 14.808" stroke-width="1.2" stroke="#00f" stroke-miterlimit="10" fill="none"/><path d="M205.117 134.19l6.805 11.85" stroke-width="1.2" stroke="#000" stroke-miterlimit="10" fill="none"/><path d="M211.922 146.04l6.8 11.843" stroke-width="1.2" stroke="#00f" stroke-miterlimit="10" fill="none"/><path d="M213.594 105.695L196.45 135.23" stroke-width="1.2" stroke="#000" stroke-miterlimit="10" fill="none"/><path d="M213.457 164.848l17.074.04" stroke-width="1.2" stroke="#00f" stroke-miterlimit="10" fill="none"/><path d="M230.53 164.887l17.075.04" stroke-width="1.2" stroke="#000" stroke-miterlimit="10" fill="none"/><path d="M208.457 156.848h10v16h-10zm0 0" fill="#fff"/><use xlink:href="#a" x="208.457" y="169.224" fill="#00f"/><path d="M247.605 164.926l8.575-14.77" stroke-width="1.2" stroke="#000" stroke-miterlimit="10" fill="none"/><path d="M256.18 150.156l8.57-14.765" stroke-width="1.2" stroke="#00f" stroke-miterlimit="10" fill="none"/><path d="M242.37 157.938l6.86-11.813" stroke-width="1.2" stroke="#000" stroke-miterlimit="10" fill="none"/><path d="M249.23 146.125l6.856-11.816" stroke-width="1.2" stroke="#00f" stroke-miterlimit="10" fill="none"/><path d="M247.605 164.926l8.504 14.804" stroke-width="1.2" stroke="#000" stroke-miterlimit="10" fill="none"/><path d="M256.11 179.73l8.503 14.81M264.75 135.39l-8.504-14.808" stroke-width="1.2" stroke="#00f" stroke-miterlimit="10" fill="none"/><path d="M256.246 120.582l-8.504-14.81" stroke-width="1.2" stroke="#000" stroke-miterlimit="10" fill="none"/><path d="M259.75 127.39h10v16h-10zm0 0" fill="#fff"/><use xlink:href="#a" x="259.75" y="139.767" fill="#00f"/><path d="M247.742 105.773l-34.148-.078M244.31 113.8l-27.322-.062" stroke-width="1.2" stroke="#000" stroke-miterlimit="10" fill="none"/><path d="M250.613 184.54h28v20h-28zm0 0" fill="#fff"/><g fill="#00f"><use xlink:href="#a" x="250.613" y="196.915"/><use xlink:href="#b" x="260.583" y="196.915"/></g><use xlink:href="#c" x="270.605" y="201.798" fill="#00f"/></g></svg>
